!!! OTL: Berkowitz619
!!! Chapter: 1
!!! Section: V
!!! Page: 158
!!! Mode: 
!!! Encoder: AR
**kern
*staff1
=1-
!!pagebreak:original
*clefG2
*k[]
*C:
*M4/4
8d-/L
8e-/
8en/
8ddn/J
4.b\
8b-\
=2
4.g/
8b-\
8c/L
8c/
8c/
8g#/J
=3
4.e/
8f/
8g#/L
8f#/J
4d/
=4
8g#/L
8f#/
8a/
8cc#/J
2b-\
=5
8dd-/L
8b-/
8dn/
8b-/J
8dd-\L
8b-\J
4cn/
=6
!!linebreak:original
8e-/L
8d-/
8Bn/
8b-/J
4g/
8Bn/L
8b-/J
=7
2.dd-\
4r
=8
8cc/L
8a/
8B-/
8a/J
4B-/
8e-/L
8f#/J
=9
!!linebreak:original
4dd\
4bn\
4.cc\
8a-/
=10
8b/L
8g/
8B-/
8g/J
8B-/L
8g/
8B-/
8g/J
=11
2.bn\
4r
==
*-
